images_elementary_svg/cmd/sc_datasubtotals.svg

<svg viewBox="0 0 16 16" xmlns="http://www.w3.org/2000/svg" xmlns:xlink="http://www.w3.org/1999/xlink"><radialGradient id="a" cx="64.575233" cy="48.605404" gradientTransform="matrix(0 .39751491 .4329035 0 -9.334735 -18.397671)" gradientUnits="userSpaceOnUse" r="31.000002"><stop offset="0" stop-color="#cdf87e"/><stop offset=".26238" stop-color="#a2e34f"/><stop offset=".66093999" stop-color="#68b723"/><stop offset="1" stop-color="#1d7e0d"/></radialGradient><linearGradient id="b" gradientTransform="matrix(.59435835 0 0 .59991399 -19.26472 -.032551)" gradientUnits="userSpaceOnUse" x1="25.132275" x2="25.132275" xlink:href="#d" y1="15.499894" y2="48.395687"/><radialGradient id="c" cx="64.575233" cy="48.605404" gradientTransform="matrix(0 .39751491 .4329035 0 -9.334735 -18.397671)" gradientUnits="userSpaceOnUse" r="31.000002" xlink:href="#a"/><linearGradient id="d" gradientTransform="matrix(.59435835 0 0 .59991399 -19.26472 -.032551)" gradientUnits="userSpaceOnUse" x1="25.132275" x2="25.132275" y1="15.499894" y2="48.395687"><stop offset="0" stop-color="#fafafa"/><stop offset="1" stop-color="#e2e1de"/></linearGradient><g transform="translate(0 2)"><g transform="translate(-5.001953 .001953)"><rect fill="url(#b)" height="4" rx=".423727" ry=".491478" stroke-width="1.33333" width="4" x="11.5" y="-1.5"/><path d="m11 0v1.0195312 2.9804688 1h5v-1-3.5c.000384-.2763015-.223699-.5003844-.5-.5zm4.001953.99804688v3.00195312h-3.001953v-2.9863281c1.29591-.00644 1.394149-.015625 3.001953-.015625z" fill="#030303" opacity=".32" transform="translate(0 -2)"/></g><g transform="translate(-5.001953 4.988281)"><rect fill="url(#b)" height="3.986328" rx=".423727" ry=".491478" stroke-width="1.33333" width="4" x="11.5" y="-1.486328"/><path d="m11 .013672v1.0195312 2.9804688 1l5-.013672v-1-3.5c.000384-.2763015-.223699-.5003844-.5-.5zm4.001953.98437488v3.00195312l-3.001953.013672v-2.9863281c1.29591-.00644 1.394149-.029297 3.001953-.029297z" fill="#030303" opacity=".32" transform="translate(0 -2)"/></g><g transform="translate(-5.003906 10.003906)"><rect fill="url(#b)" height="4.001953" rx=".423727" ry=".491478" stroke-width="1.33333" width="3.998047" x="11.501953" y="-1.501953"/><path d="m11.001953-.001953v1.0195312 2.9804688 1l4.998047.001953v-1-3.5c.000384-.2763015-.223699-.5003844-.5-.5zm4 .99999988v3.00195312l-3-.00195v-2.9863311c1.29591-.00644 1.392196-.013672 3-.013672z" fill="#030303" opacity=".32" transform="translate(0 -2)"/></g><rect fill="url(#d)" height="4" rx=".423727" ry=".491478" stroke-width="1.33333" width="4" x="11.5" y="-1.5"/><path d="m11 0v1.0195312 2.9804688 1h5v-1-3.5c.000384-.2763015-.223699-.5003844-.5-.5zm4.001953.99804688v3.00195312h-3.001953v-2.9863281c1.29591-.00644 1.394149-.015625 3.001953-.015625z" fill="#030303" opacity=".32" transform="translate(0 -2)"/><g transform="translate(0 4.986328)"><rect fill="url(#b)" height="3.986328" rx=".423727" ry=".491478" stroke-width="1.33333" width="4" x="11.5" y="-1.486328"/><path d="m11 .013672v1.0195312 2.9804688 1l5-.013672v-1-3.5c.000384-.2763015-.223699-.5003844-.5-.5zm4.001953.98437488v3.00195312l-3.001953.013672v-2.9863281c1.29591-.00644 1.394149-.029297 3.001953-.029297z" fill="#030303" opacity=".32" transform="translate(0 -2)"/></g><g transform="translate(-.001953 10.001953)"><rect fill="url(#b)" height="4.001953" rx=".423727" ry=".491478" stroke-width="1.33333" width="3.998047" x="11.501953" y="-1.501953"/><path d="m11.001953-.001953v1.0195312 2.9804688 1l4.998047.001953v-1-3.5c.000384-.2763015-.223699-.5003844-.5-.5zm4 .99999988v3.00195312l-3-.00195v-2.9863311c1.29591-.00644 1.392196-.013672 3-.013672z" fill="#030303" opacity=".32" transform="translate(0 -2)"/></g><path d="m2.5-1.5v3h1v-2h2v-1z" fill="#fcaf3e" stroke="#ce5c00" stroke-linecap="square"/><g stroke-width="1.333333"><g transform="matrix(-.75 0 0 .75 12.990285 -2.821083)"><path d="m13.987048 9.7614437-.000001-2.6666666h-1.333334v2.6666666h-2.6666663l-.0000006 1.3333333h2.6666659l.000001 2.666667h1.333337l-.000003-2.666667h2.666666v-1.3333336z" fill="url(#a)"/><path d="m13.987048 9.7614437-.000001-2.6666666h-1.333335v2.6666666h-2.6666653l-.0000006 1.3333333h2.6666659l.000004 2.666667h1.333337l-.000006-2.666667h2.666666v-1.3333333z" fill="none" opacity=".5" stroke="#0f5a00" stroke-linecap="round" stroke-linejoin="round"/><g fill="#fff" transform="translate(.833333 -.833333)"><path d="m13.153714 10.594777h-.666667v-2.6666667h.666667z" opacity=".5"/><path d="m13.169577 11.951494-.682531-.02338.01587 2.643283.6508.02338z" opacity=".2"/><path d="m15.82038 10.594778v.666666h-2.666666l-.0075-.666666zm-4 0v.666666l-2.6666666.0452v-.711864z" opacity=".4"/></g></g><g transform="matrix(-.75 0 0 .75 12.990284 3.178915)"><path d="m13.987048 9.7614437-.000001-2.6666666h-1.333334v2.6666666h-2.6666663l-.0000006 1.3333333h2.6666659l.000001 2.666667h1.333337l-.000003-2.666667h2.666666v-1.3333336z" fill="url(#c)"/><path d="m13.987048 9.7614437-.000001-2.6666666h-1.333335v2.6666666h-2.6666653l-.0000006 1.3333333h2.6666659l.000004 2.666667h1.333337l-.000006-2.666667h2.666666v-1.3333333z" fill="none" opacity=".5" stroke="#0f5a00" stroke-linecap="round" stroke-linejoin="round"/><g fill="#fff" transform="translate(.833333 -.833333)"><path d="m13.153714 10.594777h-.666667v-2.6666667h.666667z" opacity=".5"/><path d="m13.169577 11.951494-.682531-.02338.01587 2.643283.6508.02338z" opacity=".2"/><path d="m15.82038 10.594778v.666666h-2.666666l-.0075-.666666zm-4 0v.666666l-2.6666666.0452v-.711864z" opacity=".4"/></g></g></g></g></svg>

<?xml version="1.0" encoding="UTF-8" standalone="no"?>
<svg
   xmlns:dc="http://purl.org/dc/elements/1.1/"
   xmlns:cc="http://creativecommons.org/ns#"
   xmlns:rdf="http://www.w3.org/1999/02/22-rdf-syntax-ns#"
   xmlns:svg="http://www.w3.org/2000/svg"
   xmlns="http://www.w3.org/2000/svg"
   xmlns:xlink="http://www.w3.org/1999/xlink"
   xmlns:sodipodi="http://sodipodi.sourceforge.net/DTD/sodipodi-0.dtd"
   xmlns:inkscape="http://www.inkscape.org/namespaces/inkscape"
   viewBox="0 0 16 16"
   version="1.1"
   id="svg90"
   sodipodi:docname="sc_datasubtotals.svg"
   inkscape:export-filename="/home/rizmut/Dokumen/Rizmut/Github/libreoffice-style-elementary/images_elementary/cmd/sc_datasubtotals.png"
   inkscape:export-xdpi="96"
   inkscape:export-ydpi="96"
   inkscape:version="0.92.3 (unknown)">
  <metadata
     id="metadata96">
    <rdf:RDF>
      <cc:Work
         rdf:about="">
        <dc:format>image/svg+xml</dc:format>
        <dc:type
           rdf:resource="http://purl.org/dc/dcmitype/StillImage" />
        <dc:title></dc:title>
      </cc:Work>
    </rdf:RDF>
  </metadata>
  <defs
     id="defs94">
    <radialGradient
       id="a-3"
       cx="64.575233"
       cy="48.605404"
       gradientTransform="matrix(0,0.39751491,0.4329035,0,-9.334735,-18.397671)"
       gradientUnits="userSpaceOnUse"
       r="31.000002">
      <stop
         offset="0"
         stop-color="#cdf87e"
         id="stop2416" />
      <stop
         offset=".26238"
         stop-color="#a2e34f"
         id="stop2418" />
      <stop
         offset=".66093999"
         stop-color="#68b723"
         id="stop2420" />
      <stop
         offset="1"
         stop-color="#1d7e0d"
         id="stop2422" />
    </radialGradient>
    <linearGradient
       inkscape:collect="always"
       xlink:href="#l"
       id="linearGradient8315"
       gradientUnits="userSpaceOnUse"
       gradientTransform="matrix(0.59435835,0,0,0.59991399,-19.26472,-0.032551)"
       x1="25.132275"
       y1="15.499894"
       x2="25.132275"
       y2="48.395687" />
    <linearGradient
       inkscape:collect="always"
       xlink:href="#l"
       id="linearGradient8317"
       gradientUnits="userSpaceOnUse"
       gradientTransform="matrix(0.59435835,0,0,0.59991399,-19.26472,-0.032551)"
       x1="25.132275"
       y1="15.499894"
       x2="25.132275"
       y2="48.395687" />
    <linearGradient
       inkscape:collect="always"
       xlink:href="#l"
       id="linearGradient8319"
       gradientUnits="userSpaceOnUse"
       gradientTransform="matrix(0.59435835,0,0,0.59991399,-19.26472,-0.032551)"
       x1="25.132275"
       y1="15.499894"
       x2="25.132275"
       y2="48.395687" />
    <radialGradient
       inkscape:collect="always"
       xlink:href="#a-3"
       id="radialGradient8992"
       gradientUnits="userSpaceOnUse"
       gradientTransform="matrix(0,0.39751491,0.4329035,0,-9.334735,-18.397671)"
       cx="64.575233"
       cy="48.605404"
       r="31.000002" />
  </defs>
  <sodipodi:namedview
     pagecolor="#ffffff"
     bordercolor="#666666"
     borderopacity="1"
     objecttolerance="10"
     gridtolerance="10"
     guidetolerance="10"
     inkscape:pageopacity="0"
     inkscape:pageshadow="2"
     inkscape:window-width="1366"
     inkscape:window-height="706"
     id="namedview92"
     showgrid="true"
     inkscape:zoom="29.5"
     inkscape:cx="7.3005837"
     inkscape:cy="8.2541041"
     inkscape:window-x="0"
     inkscape:window-y="0"
     inkscape:window-maximized="1"
     inkscape:current-layer="g88">
    <inkscape:grid
       type="xygrid"
       id="grid903"
       spacingx="0.5"
       spacingy="0.5"
       empspacing="2" />
  </sodipodi:namedview>
  <linearGradient
     id="a"
     gradientUnits="userSpaceOnUse"
     x1="1.071"
     x2="10.542"
     xlink:href="#b"
     y1="7.053001"
     y2="-.013" />
  <linearGradient
     id="b">
    <stop
       offset="0"
       stop-color="#fff3cb"
       id="stop3" />
    <stop
       offset=".262"
       stop-color="#fdde76"
       id="stop5" />
    <stop
       offset=".661"
       stop-color="#f9c440"
       id="stop7" />
    <stop
       offset="1"
       stop-color="#e48b20"
       id="stop9" />
  </linearGradient>
  <radialGradient
     id="c"
     cx="32.5"
     cy="16.563"
     gradientTransform="matrix(.136 .32887 -.25782 .113 -3.123 -21.05)"
     gradientUnits="userSpaceOnUse"
     r="14.438"
     xlink:href="#b" />
  <filter
     id="d"
     color-interpolation-filters="sRGB"
     height="1.324"
     width="1.387"
     x="-.193"
     y="-.162">
    <feGaussianBlur
       stdDeviation=".678"
       id="feGaussianBlur13" />
  </filter>
  <radialGradient
     id="e"
     cx="6.703"
     cy="73.615997"
     gradientTransform="matrix(1.1067389 0 0 .24210121 .58267 -5.875327)"
     gradientUnits="userSpaceOnUse"
     r="7.228">
    <stop
       offset="0"
       id="stop16" />
    <stop
       offset="1"
       stop-opacity="0"
       id="stop18" />
  </radialGradient>
  <linearGradient
     id="f"
     gradientTransform="matrix(.19514764 0 0 .28355475 .61867 -1.505306)"
     gradientUnits="userSpaceOnUse"
     x1="31"
     x2="3.259"
     xlink:href="#g"
     y1="12.875"
     y2="24.893999" />
  <linearGradient
     id="g">
    <stop
       offset="0"
       stop-color="#fff"
       id="stop22" />
    <stop
       offset="1"
       stop-color="#fff"
       stop-opacity="0"
       id="stop24" />
  </linearGradient>
  <radialGradient
     id="h"
     cx="32.5"
     cy="16.563"
     gradientTransform="matrix(.09066712 .21924776 -.17188086 .07533371 7.373371 -6.721998)"
     gradientUnits="userSpaceOnUse"
     r="14.438"
     xlink:href="#g" />
  <linearGradient
     id="i"
     gradientTransform="matrix(.26726 0 0 1.15755 9.316 -10.704)"
     gradientUnits="userSpaceOnUse"
     x1="-32.957001"
     x2="-25.474001"
     y1="27.389"
     y2="27.389">
    <stop
       offset="0"
       stop-color="#2e3436"
       id="stop28" />
    <stop
       offset=".644"
       stop-color="#888a85"
       id="stop30" />
    <stop
       offset="1"
       stop-color="#555753"
       id="stop32" />
  </linearGradient>
  <linearGradient
     id="j"
     gradientTransform="matrix(.77602 .23906 -.31605 .56748 -20.168 4.55)"
     gradientUnits="userSpaceOnUse"
     x1="27.528"
     x2="30.42"
     y1="4.167"
     y2="2.949">
    <stop
       offset="0"
       stop-color="#eeeeec"
       id="stop35" />
    <stop
       offset=".789"
       stop-color="#fff"
       id="stop37" />
    <stop
       offset="1"
       stop-color="#eeeeec"
       id="stop39" />
  </linearGradient>
  <linearGradient
     id="k"
     gradientTransform="matrix(.59435835 0 0 .59991399 -19.26472 -.032551)"
     gradientUnits="userSpaceOnUse"
     x1="25.132275"
     x2="25.132275"
     xlink:href="#l"
     y1="15.499894"
     y2="48.395687" />
  <linearGradient
     id="l"
     gradientTransform="matrix(.59435835 0 0 .59991399 -19.26472 -.032551)"
     gradientUnits="userSpaceOnUse"
     x1="25.132275"
     x2="25.132275"
     y1="15.499894"
     y2="48.395687">
    <stop
       offset="0"
       stop-color="#fafafa"
       id="stop43" />
    <stop
       offset="1"
       stop-color="#e2e1de"
       id="stop45" />
  </linearGradient>
  <g
     transform="translate(0 2)"
     id="g88">
    <g
       id="g9033">
      <g
         transform="translate(-5.001953,0.00195312)"
         id="g8301">
        <rect
           id="rect8297"
           y="-1.5"
           x="11.5"
           width="4"
           ry="0.491478"
           rx="0.42372701"
           height="4"
           style="fill:url(#linearGradient8315);stroke-width:1.33333004" />
        <path
           id="path8299"
           transform="translate(0,-2)"
           d="M 11,0 V 1.0195312 4 5 h 5 V 4 0.5 C 16.000384,0.2236985 15.776301,-3.844e-4 15.5,0 Z m 4.001953,0.99804688 V 4 H 12 V 1.0136719 c 1.29591,-0.00644 1.394149,-0.015625 3.001953,-0.015625 z"
           inkscape:connector-curvature="0"
           style="opacity:0.32000002;fill:#030303"
           sodipodi:nodetypes="cccccccccccccc" />
      </g>
      <g
         transform="translate(-5.001953,4.9882811)"
         id="g8307">
        <rect
           height="3.9863279"
           rx="0.42372701"
           ry="0.491478"
           width="4"
           x="11.5"
           y="-1.486328"
           id="rect8303"
           style="fill:url(#linearGradient8317);stroke-width:1.33333004" />
        <path
           d="m 11,0.013672 v 1.0195312 2.9804688 1 L 16,5 V 4 0.5 C 16.000384,0.2236985 15.776301,-3.844e-4 15.5,0 Z m 4.001953,0.98437488 V 4 L 12,4.013672 V 1.0273439 c 1.29591,-0.00644 1.394149,-0.029297 3.001953,-0.029297 z"
           transform="translate(0,-2)"
           id="path8305"
           inkscape:connector-curvature="0"
           style="opacity:0.32000002;fill:#030303"
           sodipodi:nodetypes="cccccccccccccc" />
      </g>
      <g
         transform="translate(-5.003906,10.003906)"
         id="g8313">
        <rect
           height="4.0019531"
           rx="0.42372701"
           ry="0.491478"
           width="3.9980471"
           x="11.501953"
           y="-1.501953"
           id="rect8309"
           style="fill:url(#linearGradient8319);stroke-width:1.33333004" />
        <path
           d="m 11.001953,-0.001953 v 1.0195312 2.9804688 1 L 16,5 V 4 0.5 C 16.000384,0.2236985 15.776301,-3.844e-4 15.5,0 Z m 4,0.99999988 V 4 l -3,-0.00195 V 1.0117189 c 1.29591,-0.00644 1.392196,-0.013672 3,-0.013672 z"
           transform="translate(0,-2)"
           id="path8311"
           inkscape:connector-curvature="0"
           style="opacity:0.32000002;fill:#030303"
           sodipodi:nodetypes="cccccccccccccc" />
      </g>
    </g>
    <g
       id="g8255">
      <rect
         id="rect48"
         y="-1.5"
         x="11.5"
         width="4"
         ry="0.491478"
         rx="0.42372701"
         height="4"
         style="fill:url(#l);stroke-width:1.33333004" />
      <path
         id="path50"
         transform="translate(0,-2)"
         d="M 11,0 V 1.0195312 4 5 h 5 V 4 0.5 C 16.000384,0.2236985 15.776301,-3.844e-4 15.5,0 Z m 4.001953,0.99804688 V 4 H 12 V 1.0136719 c 1.29591,-0.00644 1.394149,-0.015625 3.001953,-0.015625 z"
         inkscape:connector-curvature="0"
         style="opacity:0.32000002;fill:#030303"
         sodipodi:nodetypes="cccccccccccccc" />
    </g>
    <g
       transform="translate(0 4.986328)"
       id="g56">
      <rect
         height="3.9863279"
         rx="0.42372701"
         ry="0.491478"
         width="4"
         x="11.5"
         y="-1.486328"
         id="rect52"
         style="fill:url(#k);stroke-width:1.33333004" />
      <path
         d="m 11,0.013672 v 1.0195312 2.9804688 1 L 16,5 V 4 0.5 C 16.000384,0.2236985 15.776301,-3.844e-4 15.5,0 Z m 4.001953,0.98437488 V 4 L 12,4.013672 V 1.0273439 c 1.29591,-0.00644 1.394149,-0.029297 3.001953,-0.029297 z"
         transform="translate(0,-2)"
         id="path54"
         inkscape:connector-curvature="0"
         style="opacity:0.32000002;fill:#030303"
         sodipodi:nodetypes="cccccccccccccc" />
    </g>
    <g
       transform="translate(-.001953 10.001953)"
       id="g62">
      <rect
         height="4.0019531"
         rx="0.42372701"
         ry="0.491478"
         width="3.9980471"
         x="11.501953"
         y="-1.501953"
         id="rect58"
         style="fill:url(#k);stroke-width:1.33333004" />
      <path
         d="m 11.001953,-0.001953 v 1.0195312 2.9804688 1 L 16,5 V 4 0.5 C 16.000384,0.2236985 15.776301,-3.844e-4 15.5,0 Z m 4,0.99999988 V 4 l -3,-0.00195 V 1.0117189 c 1.29591,-0.00644 1.392196,-0.013672 3,-0.013672 z"
         transform="translate(0,-2)"
         id="path60"
         inkscape:connector-curvature="0"
         style="opacity:0.32000002;fill:#030303"
         sodipodi:nodetypes="cccccccccccccc" />
    </g>
    <path
       inkscape:connector-curvature="0"
       style="fill:#fcaf3e;stroke:#ce5c00;stroke-linecap:square"
       d="m 2.5,-1.5 v 3 h 1 v -2 h 2 v -1 z"
       id="path30"
       sodipodi:nodetypes="ccccccc" />
    <g
       transform="matrix(-0.75,0,0,0.75,12.990285,-2.8210828)"
       id="g2447">
      <path
         style="fill:url(#a-3);stroke-width:1.33333337;stroke-miterlimit:4;stroke-dasharray:none"
         inkscape:connector-curvature="0"
         d="m 13.987048,9.7614437 -10e-7,-2.6666666 H 12.653713 V 9.7614437 H 9.9870467 l -6e-7,1.3333333 h 2.6666659 l 10e-7,2.666667 h 1.333337 l -3e-6,-2.666667 h 2.666666 V 9.7614434 Z"
         id="path2435"
         sodipodi:nodetypes="ccccccccccccc" />
      <path
         style="opacity:0.5;fill:none;stroke:#0f5a00;stroke-width:1.33333337;stroke-linecap:round;stroke-linejoin:round;stroke-miterlimit:4;stroke-dasharray:none"
         inkscape:connector-curvature="0"
         d="m 13.987048,9.7614437 -10e-7,-2.6666666 H 12.653712 V 9.7614437 H 9.9870467 l -6e-7,1.3333333 h 2.6666659 l 4e-6,2.666667 h 1.333337 l -6e-6,-2.666667 h 2.666666 V 9.7614437 Z"
         id="path2437"
         sodipodi:nodetypes="ccccccccccccc" />
      <g
         style="fill:#ffffff;stroke-width:1.33333337;stroke-miterlimit:4;stroke-dasharray:none"
         id="g2445"
         transform="translate(0.833333,-0.83333327)">
        <path
           style="opacity:0.5;stroke-width:1.33333337;stroke-miterlimit:4;stroke-dasharray:none"
           inkscape:connector-curvature="0"
           d="M 13.153714,10.594777 H 12.487047 V 7.9281103 h 0.666667 z"
           id="path2439"
           sodipodi:nodetypes="ccccc" />
        <path
           style="opacity:0.2;stroke-width:1.33333337;stroke-miterlimit:4;stroke-dasharray:none"
           inkscape:connector-curvature="0"
           d="m 13.169577,11.951494 -0.682531,-0.02338 0.01587,2.643283 0.6508,0.02338 z"
           id="path2441"
           sodipodi:nodetypes="ccccc" />
        <path
           style="opacity:0.4;stroke-width:1.33333337;stroke-miterlimit:4;stroke-dasharray:none"
           inkscape:connector-curvature="0"
           d="m 15.82038,10.594778 v 0.666666 h -2.666666 l -0.0075,-0.666666 z m -4,0 v 0.666666 l -2.6666666,0.0452 V 10.59478 Z"
           id="path2443"
           sodipodi:nodetypes="cccccccccc" />
      </g>
    </g>
    <g
       id="g8990"
       transform="matrix(-0.75,0,0,0.75,12.990284,3.1789145)">
      <path
         sodipodi:nodetypes="ccccccccccccc"
         id="path8978"
         d="m 13.987048,9.7614437 -10e-7,-2.6666666 H 12.653713 V 9.7614437 H 9.9870467 l -6e-7,1.3333333 h 2.6666659 l 10e-7,2.666667 h 1.333337 l -3e-6,-2.666667 h 2.666666 V 9.7614434 Z"
         inkscape:connector-curvature="0"
         style="fill:url(#radialGradient8992);stroke-width:1.33333337;stroke-miterlimit:4;stroke-dasharray:none" />
      <path
         sodipodi:nodetypes="ccccccccccccc"
         id="path8980"
         d="m 13.987048,9.7614437 -10e-7,-2.6666666 H 12.653712 V 9.7614437 H 9.9870467 l -6e-7,1.3333333 h 2.6666659 l 4e-6,2.666667 h 1.333337 l -6e-6,-2.666667 h 2.666666 V 9.7614437 Z"
         inkscape:connector-curvature="0"
         style="opacity:0.5;fill:none;stroke:#0f5a00;stroke-width:1.33333337;stroke-linecap:round;stroke-linejoin:round;stroke-miterlimit:4;stroke-dasharray:none" />
      <g
         transform="translate(0.833333,-0.83333327)"
         id="g8988"
         style="fill:#ffffff;stroke-width:1.33333337;stroke-miterlimit:4;stroke-dasharray:none">
        <path
           sodipodi:nodetypes="ccccc"
           id="path8982"
           d="M 13.153714,10.594777 H 12.487047 V 7.9281103 h 0.666667 z"
           inkscape:connector-curvature="0"
           style="opacity:0.5;stroke-width:1.33333337;stroke-miterlimit:4;stroke-dasharray:none" />
        <path
           sodipodi:nodetypes="ccccc"
           id="path8984"
           d="m 13.169577,11.951494 -0.682531,-0.02338 0.01587,2.643283 0.6508,0.02338 z"
           inkscape:connector-curvature="0"
           style="opacity:0.2;stroke-width:1.33333337;stroke-miterlimit:4;stroke-dasharray:none" />
        <path
           sodipodi:nodetypes="cccccccccc"
           id="path8986"
           d="m 15.82038,10.594778 v 0.666666 h -2.666666 l -0.0075,-0.666666 z m -4,0 v 0.666666 l -2.6666666,0.0452 V 10.59478 Z"
           inkscape:connector-curvature="0"
           style="opacity:0.4;stroke-width:1.33333337;stroke-miterlimit:4;stroke-dasharray:none" />
      </g>
    </g>
    <path
       inkscape:connector-curvature="0"
       id="path6078"
       d="m 8.5,10.5 v 0"
       style="fill:none;stroke:#abacae;stroke-width:0.99999994;stroke-linecap:round;stroke-linejoin:round;stroke-miterlimit:4;stroke-dasharray:none;stroke-opacity:1"
       sodipodi:nodetypes="cc" />
    <path
       inkscape:connector-curvature="0"
       id="path6082"
       d="m 8.5,5.5 h 0"
       style="fill:none;stroke:#f37329;stroke-width:0.99999994;stroke-linecap:round;stroke-linejoin:round;stroke-miterlimit:4;stroke-dasharray:none;stroke-opacity:1"
       sodipodi:nodetypes="cc" />
    <path
       sodipodi:nodetypes="cc"
       style="fill:none;stroke:#abacae;stroke-width:0.99999994;stroke-linecap:round;stroke-linejoin:round;stroke-miterlimit:4;stroke-dasharray:none;stroke-opacity:1"
       d="m 8.5,10.5 v 0"
       id="path9022"
       inkscape:connector-curvature="0" />
    <path
       sodipodi:nodetypes="cc"
       style="fill:none;stroke:#abacae;stroke-width:0.99999994;stroke-linecap:round;stroke-linejoin:round;stroke-miterlimit:4;stroke-dasharray:none;stroke-opacity:1"
       d="m 8.5,0.5 v 0"
       id="path9035"
       inkscape:connector-curvature="0" />
    <path
       inkscape:connector-curvature="0"
       id="path9037"
       d="m 8.5,0.5 v 0"
       style="fill:none;stroke:#abacae;stroke-width:0.99999994;stroke-linecap:round;stroke-linejoin:round;stroke-miterlimit:4;stroke-dasharray:none;stroke-opacity:1"
       sodipodi:nodetypes="cc" />
    <path
       sodipodi:nodetypes="cc"
       style="fill:none;stroke:#f37329;stroke-width:0.99999994;stroke-linecap:round;stroke-linejoin:round;stroke-miterlimit:4;stroke-dasharray:none;stroke-opacity:1"
       d="m 13.5,5.5 v 0"
       id="path9039"
       inkscape:connector-curvature="0" />
  </g>
</svg>
